X: 18
T: Missa Ave Maria / Agnus Dei
N: Derived from Rue1004e-Missa_Ave_Maria-Agnus.krn
C: Pierre de la Rue
%%abc-version 2.0
%%abcx-abcm2ps-target-version 5.9.1 (29 Sep 2008)
%%abc-creator hum2abc beta
%%abcx-conversion-date 2019/02/17 08:01:10
%%abc-edited-by Jesse Rodin
%%abc-edited-by Chris Gage 12-06-2012
%%abcx-initial-encoding-date 2013/05/24/
%%humdrum-veritas 1443621887
%%humdrum-veritas-data 1087986827
%%linebreak <none>
%%barnumbers 0
L: 1/4
M: 4/2
Q: 1/2=120
%%staves [1 2 3 4]
V: 1 clef=treble
V: 2 clef=treble-8
V: 3 clef=treble-8
V: 4 clef=bass
K: C
[V:1] z8 | 
[V:2] z8 | 
[V:3] z8 | 
[V:4] C8 | 
[V:1] z8 | 
[V:2] z4c4- | 
[V:3] z8 | 
[V:4] G,4A,4- | 
[V:1] z8 | 
[V:2] c4G4 | 
[V:3] z8 | 
[V:4] A,4E,4 | 
[V:1] c8- | 
[V:2] A4c3d | 
[V:3] z8 | 
[V:4] F,8 | 
[V:1] c4G4 | 
[V:2] e6e2 | 
[V:3] z8 | 
[V:4] C,4z2C,2 | 
[V:1] A4c3d | 
[V:2] f8 | 
[V:3] c8- | 
[V:4] F,3G,A,4- | 
[V:1] e4f4- | 
[V:2] e2a4f2- | 
[V:3] c8- | 
[V:4] A,4F,4- | 
[V:1] f4e4- | 
[V:2] f2f2g4- | 
[V:3] c8 | 
[V:4] F,4C,4- | 
[V:1] e4z2e2 | 
[V:2] g2c2g4 | 
[V:3] G8 | 
[V:4] C,4E,4 | 
[V:1] d2c3BAG | 
[V:2] f2a3gf2 | 
[V:3] A4A4 | 
[V:4] F,6A,2- | 
[V:1] A3Bc2B2- | 
[V:2] e2f2g4 | 
[V:3] c3de4 | 
[V:4] A,4E,4 | 
[V:1] B2A4d2 | 
[V:2] z4d4 | 
[V:3] f8 | 
[V:4] D,8 | 
[V:1] c2B3AA2- | 
[V:2] g3fedc2- | 
[V:3] e8 | 
[V:4] E,3F,G,2A,2 | 
[V:1] A2G2F2E2- | 
[V:2] c2B4B2- | 
[V:3] z8 | 
[V:4] E,4D,2E,2 | 
[V:1] E2D2E2G2 | 
[V:2] BAA2B2c2 | 
[V:3] z8 | 
[V:4] F,4E,4 | 
[V:1] F4E4 | 
[V:2] d4e2c2 | 
[V:3] z8 | 
[V:4] z4z2E,2- | 
[V:1] z8 | 
[V:2] B4z4 | 
[V:3] e8 | 
[V:4] E,F,G,2A,2E,2 | 
[V:1] z8 | 
[V:2] z8 | 
[V:3] d2c2d4 | 
[V:4] G,2A,2F,4 | 
[V:1] G3AB2c2 | 
[V:2] B3cd2e2- | 
[V:3] e4z4 | 
[V:4] E,4z4 | 
[V:1] G3AB2c2 | 
[V:2] edc2B2A2 | 
[V:3] e8 | 
[V:4] E,3F,G,2A,2 | 
[V:1] d2B2c4 | 
[V:2] G2g4^f2 | 
[V:3] d4c4 | 
[V:4] B,2G,2A,4 | 
[V:1] B6A2 | 
[V:2] g4g2a2- | 
[V:3] d8 | 
[V:4] G,6F,2 | 
[V:1] d4c3d | 
[V:2] a2gfa2e2 | 
[V:3] d4A3B | 
[V:4] D,4z4 | 
[V:1] e2f2c3d | 
[V:2] a8 | 
[V:3] c2d2A3B | 
[V:4] z4z2A,2- | 
[V:1] e2f2g2e2 | 
[V:2] a4g4 | 
[V:3] c2d2e2c2 | 
[V:4] A,G,F,2E,4 | 
[V:1] f6ed | 
[V:2] z2a4gf | 
[V:3] d4A4- | 
[V:4] D,8 | 
[V:1] f2e3dc2 | 
[V:2] a2g2e4 | 
[V:3] A4z4 | 
[V:4] z8 | 
[V:1] B2A4d2- | 
[V:2] f3ga2_b2 | 
[V:3] d8 | 
[V:4] D,3E,F,2G,2 | 
[V:1] dc_BAB2A2 | 
[V:2] a2g2G2A2 | 
[V:3] d3cdef2- | 
[V:4] D,2G,4F,2 | 
[V:1] F2A3GE2 | 
[V:2] _B2A4G2 | 
[V:3] fed4^c2 | 
[V:4] D,2F,2E,4 | 
[V:1] F2D2F3G | 
[V:2] A4z2a2 | 
[V:3] d8 | 
[V:4] D,8 | 
[V:1] A2G2z2c2 | 
[V:2] a2f4c2- | 
[V:3] c8 | 
[V:4] z2F,2F,2F,2 | 
[V:1] c2c2G4 | 
[V:2] cdefg3f | 
[V:3] c4c4 | 
[V:4] C,4C,D,E,F, | 
[V:1] GABcd3c | 
[V:2] d2g2f2e2 | 
[V:3] B8 | 
[V:4] G,3F,D,2G,2 | 
[V:1] ABc4BA | 
[V:2] f2e2f4 | 
[V:3] c4c2d2- | 
[V:4] F,2A,4G,F, | 
[V:1] B2A4G2 | 
[V:2] e8 | 
[V:3] d2A2B4 | 
[V:4] G,2A,2E,4 | 
[V:1] A2c2B2A2 | 
[V:2] z2A2B2c2 | 
[V:3] A4e4- | 
[V:4] z2A,2G,2A,2- | 
[V:1] c2BAGABc | 
[V:2] A4B4 | 
[V:3] e4z2e2 | 
[V:4] A,2G,F,E,4 | 
[V:1] B2E2G4 | 
[V:2] z4z2e2 | 
[V:3] d2c2e3d/c/ | 
[V:4] z4z2E,2 | 
[V:1] GABcB3A | 
[V:2] d2B3cd2 | 
[V:3] Bcded2G2 | 
[V:4] G,6G,2 | 
[V:1] A2G2A4 | 
[V:2] c2B4A2 | 
[V:3] z2B2d2d2 | 
[V:4] A,2E,2F,4 | 
[V:1] G2c4B2- | 
[V:2] B2A2e4 | 
[V:3] e4A2B2 | 
[V:4] E,2A,4G,2 | 
[V:1] BAA4^G2 | 
[V:2] f4e4- | 
[V:3] c2d2B4 | 
[V:4] F,2D,2E,4 | 
[V:1] A8 ||  
[V:2] e4e4 ||  
[V:3] A8 ||  
[V:4] A,,8 ||  
[V:1]  [K:C] [K:clef=treble][M:2/1]z8 | 
[V:2]  [K:C] [K:clef=treble-8][M:2/1]z8 | 
[V:3]  [K:C] [K:clef=treble-8][M:2/1]c4B2G2 | 
[V:4]  [K:C] [K:clef=bass][M:2/1]z8 | 
[V:1] z8 | 
[V:2] z8 | 
[V:3] A4e4 | 
[V:4] F,4E,2C,2 | 
[V:1] z8 | 
[V:2] z8 | 
[V:3] f8- | 
[V:4] D,4A,4 | 
[V:1] z8 | 
[V:2] z8 | 
[V:3] f8 | 
[V:4] _B,2A,4F,2 | 
[V:1] z8 | 
[V:2] z8 | 
[V:3] e8 | 
[V:4] G,2A,3G,G,2 | 
[V:1] z8 | 
[V:2] z8 | 
[V:3] z2e4d2 | 
[V:4] A,2C3B,B,2 | 
[V:1] z8 | 
[V:2] z8 | 
[V:3] e2g4f2 | 
[V:4] CB,A,G,A,4 | 
[V:1] z8 | 
[V:2] z8 | 
[V:3] gfede4 | 
[V:4] G,4z2G,2- | 
[V:1] z8 | 
[V:2] z8 | 
[V:3] d2f2e2d2- | 
[V:4] G,2F,2G,F,E,D, | 
[V:1] z8 | 
[V:2] z8 | 
[V:3] d2c2d3c | 
[V:4] E,4D,2F,2- | 
[V:1] z8 | 
[V:2] z8 | 
[V:3] dcBAB4 | 
[V:4] F,E,A,4G,2 | 
[V:1] c4B2G2 | 
[V:2] z8 | 
[V:3] A2c4B2- | 
[V:4] A,2F,2G,4 | 
[V:1] A4e4 | 
[V:2] f4e2c2 | 
[V:3] B2A4G2 | 
[V:4] F,2D,2E,4 | 
[V:1] f8- | 
[V:2] d4a4 | 
[V:3] A8 | 
[V:4] D,8- | 
[V:1] f8 | 
[V:2] _b2a4f2 | 
[V:3] z8 | 
[V:4] D,8 | 
[V:1] e4z2e2 | 
[V:2] g2a3gg2 | 
[V:3] z8 | 
[V:4] z8 | 
[V:1] f2e4c2 | 
[V:2] a8 | 
[V:3] z8 | 
[V:4] z8 | 
[V:1] d2e4d2 | 
[V:2] z2a3gf2 | 
[V:3] z8 | 
[V:4] z8 | 
[V:1] e3dc2B2 | 
[V:2] e2a4g2- | 
[V:3] z8 | 
[V:4] z8 | 
[V:1] e4e2d2- | 
[V:2] gfedc2g2- | 
[V:3] z8 | 
[V:4] z8 | 
[V:1] dcBAG2B2- | 
[V:2] g2f2g4- | 
[V:3] z4e4 | 
[V:4] z8 | 
[V:1] BABcd3c | 
[V:2] g2f2d2g2- | 
[V:3] e2d3cBA | 
[V:4] z8 | 
[V:1] BAA4^G2 | 
[V:2] gfe4d2 | 
[V:3] G2A2B4 | 
[V:4] z8 | 
[V:1] A8 | 
[V:2] e8- | 
[V:3] A8 | 
[V:4] z4A,4 | 
[V:1] z8 | 
[V:2] e8 | 
[V:3] z4e4 | 
[V:4] A,2G,3F,E,D, | 
[V:1] z8 | 
[V:2] z8 | 
[V:3] e2d3cBA | 
[V:4] C,2G,4F,2 | 
[V:1] z8 | 
[V:2] z8 | 
[V:3] G2d4c2 | 
[V:4] G,2D,2E,4 | 
[V:1] z8 | 
[V:2] z8 | 
[V:3] d2cBA2c2- | 
[V:4] D,2F,3E,A,2- | 
[V:1] z8 | 
[V:2] z4a4 | 
[V:3] cBe4d2 | 
[V:4] A,E,G,2F,4 | 
[V:1] z4e4 | 
[V:2] g2g3fed | 
[V:3] e8 | 
[V:4] E,8 | 
[V:1] e2d3cBA | 
[V:2] c2g3ff2 | 
[V:3] z8 | 
[V:4] z8 | 
[V:1] G2d4c2 | 
[V:2] gfede4 | 
[V:3] z8 | 
[V:4] z8 | 
[V:1] d2cBABc2- | 
[V:2] d2f3ea2- | 
[V:3] z8 | 
[V:4] z8 | 
[V:1] c2BAB4 | 
[V:2] a2gfg4 | 
[V:3] e4e4 | 
[V:4] z8 | 
[V:1] A4z4 | 
[V:2] a8 | 
[V:3] c2d3cA2 | 
[V:4] z4D,4 | 
[V:1] z8 | 
[V:2] z8 | 
[V:3] B3cd2e2- | 
[V:4] G,4G,3F, | 
[V:1] z8 | 
[V:2] z8 | 
[V:3] e2d4c2 | 
[V:4] G,F,E,D,E,4 | 
[V:1] z8 | 
[V:2] a4a4 | 
[V:3] d2fedcd2- | 
[V:4] D,4F,4- | 
[V:1] z8 | 
[V:2] f2g3fd2 | 
[V:3] dGc4B2 | 
[V:4] F,2E,2D,4 | 
[V:1] e4e4 | 
[V:2] e3fg2a2- | 
[V:3] c8 | 
[V:4] C,8 | 
[V:1] c2d3cA2 | 
[V:2] a2g4f2 | 
[V:3] z8 | 
[V:4] z8 | 
[V:1] B3cdBe2- | 
[V:2] g4g3f | 
[V:3] z8 | 
[V:4] z8 | 
[V:1] e2d4c2 | 
[V:2] gfede4 | 
[V:3] z8 | 
[V:4] z8 | 
[V:1] f3ee2dc | 
[V:2] d2g4f2- | 
[V:3] z8 | 
[V:4] z8 | 
[V:1] BAc4B2 | 
[V:2] fce2d4 | 
[V:3] z8 | 
[V:4] z4G,4 | 
[V:1] c8 | 
[V:2] c8 | 
[V:3] e4f4 | 
[V:4] A,6F,2 | 
[V:1] z8 | 
[V:2] z8 | 
[V:3] e2c2d2e2- | 
[V:4] G,2A,2F,2G,2 | 
[V:1] z8 | 
[V:2] z8 | 
[V:3] e2c2d2e2- | 
[V:4] A,4F,2G,2 | 
[V:1] z8 | 
[V:2] z8 | 
[V:3] efgef2d2 | 
[V:4] A,2G,2_B,4 | 
[V:1] z8 | 
[V:2] z8 | 
[V:3] f2e3dB2 | 
[V:4] A,4E,4 | 
[V:1] z4z2c2 | 
[V:2] z4g4 | 
[V:3] A2c3BG2 | 
[V:4] F,4C,4 | 
[V:1] d2e3fge | 
[V:2] g4g4 | 
[V:3] B4c4 | 
[V:4] G,3F,E,4 | 
[V:1] f2d2f2e2- | 
[V:2] f2a4gf | 
[V:3] d4A4 | 
[V:4] D,4z4 | 
[V:1] edB2A2c2- | 
[V:2] e2d2f2a2 | 
[V:3] z2B2c3d | 
[V:4] G,4F,4 | 
[V:1] cBGABcd2- | 
[V:2] g3fe2d2 | 
[V:3] efg4fe | 
[V:4] C,4G,3A, | 
[V:1] d2c4B2 | 
[V:2] g8 | 
[V:3] d2e2d4 | 
[V:4] B,2C2G,4 | 
[V:1] c2e4d2- | 
[V:2] z2g4fe | 
[V:3] c4B4- | 
[V:4] C,4G,4- | 
[V:1] dcBAc3B | 
[V:2] d4c3d | 
[V:3] B4e4- | 
[V:4] G,4A,4 | 
[V:1] BAA4G2 | 
[V:2] e4z2e2- | 
[V:3] e2dcB4 | 
[V:4] E,8 | 
[V:1] A2E2F2G2 | 
[V:2] edc4B2 | 
[V:3] A4z4 | 
[V:4] z2A,3G,G,2 | 
[V:1] EFGF/G/ABcB/c/ | 
[V:2] cded/e/f2e2 | 
[V:3] z2B2cded/e/ | 
[V:4] A,2E,2A,4 | 
[V:1] d3cBAB2- | 
[V:2] a3gfeg2- | 
[V:3] f3edcdc | 
[V:4] D,4D,2G,2- | 
[V:1] B2A4^G2 | 
[V:2] gfede4 | 
[V:3] dcBAB4 | 
[V:4] G,2A,2E,4 | 
[V:1] A8- | 
[V:2] e8- | 
[V:3] A8- | 
[V:4] z4A,,4 | 
[V:1] A8 |]  
[V:2] e8 |]  
[V:3] A8 |]  
[V:4] A,,8 |]  



